web/packages/design/src/ResourceIcon/assets/circleci-light.svg

<svg width="72" height="72" viewBox="0 0 72 72" fill="none" xmlns="http://www.w3.org/2000/svg">
<path fill-rule="evenodd" clip-rule="evenodd" d="M36.0624 0C19.2907 0 5.21618 11.5138 1.25505 27.0801C1.22821 27.1934 1.20996 27.3088 1.20996 27.4293C1.20996 28.3759 1.97613 29.1433 2.92123 29.1433H17.4023C18.0919 29.1433 18.682 28.7309 18.9543 28.1421C21.9295 21.6525 28.4672 17.1418 36.0624 17.1418C46.4535 17.1418 54.8816 25.5866 54.8816 36.0004C54.8816 46.4146 46.4535 54.8592 36.0624 54.8592C28.4672 54.8592 21.932 50.3479 18.9568 43.8563L18.9543 43.8601C18.682 43.2702 18.0919 42.8584 17.4023 42.8584H2.92123C1.97613 42.8584 1.20996 43.6237 1.20996 44.5729C1.20996 44.69 1.22821 44.802 1.25255 44.9143C5.2126 60.4815 19.2875 72 36.0624 72C55.9035 72 71.991 55.8801 71.991 36.0004C71.991 16.1184 55.9035 0 36.0624 0ZM27.5071 36.0004C27.5071 31.2678 31.3385 27.4293 36.0624 27.4293C40.7861 27.4293 44.6158 31.2678 44.6158 36.0004C44.6158 40.7334 40.7861 44.5729 36.0624 44.5729C31.3385 44.5729 27.5071 40.7334 27.5071 36.0004Z" fill="black"/>
</svg>

<svg xmlns="http://www.w3.org/2000/svg" width="72" height="72" fill="none" viewBox="0 0 72 72"><path fill="#000" fill-rule="evenodd" d="M36.062 0C19.291 0 5.216 11.514 1.255 27.08a1.5 1.5 0 0 0-.045.35c0 .946.766 1.713 1.711 1.713h14.481c.69 0 1.28-.412 1.552-1 2.976-6.49 9.513-11.001 17.108-11.001 10.392 0 18.82 8.445 18.82 18.858 0 10.415-8.428 18.86-18.82 18.86-7.595 0-14.13-4.512-17.105-11.004l-.003.004a1.71 1.71 0 0 0-1.552-1.002H2.922c-.946 0-1.712.766-1.712 1.715 0 .117.018.229.043.341C5.213 60.481 19.288 72 36.063 72c19.84 0 35.928-16.12 35.928-36 0-19.882-16.087-36-35.929-36m-8.555 36c0-4.732 3.831-8.57 8.555-8.57s8.554 3.838 8.554 8.57-3.83 8.573-8.554 8.573c-4.723 0-8.555-3.84-8.555-8.573" clip-rule="evenodd"/></svg>
